X: 2138
T: Şarkılar Seni Söyler
C: Muzaffer İlkar
O: Turkey
F: http://compmusic.upf.edu/node/140
N: nihavent--sarki--duyek--sarkilar_seni--muzaffer_ilkar
N: makam= nihavent
N: form= sarki
N: usul= duyek = 8/4
M: 8/4
L: 1/16
K: C _B _e  
Q: 1/4=144
%%MIDI tuningsystem comma53
(3GAB d6 (3ded c2 (3ded c2  | (3BAB (3cBc (3def (3edc d8  | 
w:  ARANAĞME  |   | 
(3ABc e6 (3def e2 (3def e2  | (3def (3ede (3dcd (3fed e8  | 
w:   |   | 
(3def a4 (3gag (3fgf (3efe d4  | (3def g4 (3fgf (3efe (3ded c4  | 
w:   |   | 
(3Bcd e4 (3ded (3cdc (3BcB A4  | (3GAB d4 c2 B3/2A/ G^F G4  | 
w:   |   | 
z2 G4 B2 d8  | c2 d2 f2 ed d8  | z2 g2 f2 e2 d4 c2 df  | \
w:  Şar kı lar  |  se ni söy *  *  ler  |  Dil ler *  de nağ me a  | 
e6 de g3/2f/ ed e4  | 
w:  dın SAZ  | 
z2 d2 e2 g2 f4 e2 c2  | d6 de dc BA G4  | \
w:  Dil ler de nağ me a  |  dın SAZ  | 
z2 G4 B2 d8  | c2 d2 f2 ed d8  | 
w:  Şar kı lar  |  se ni söy *  *  ler  | 
z2 g2 f2 e2 d4 c2 df  | e6 de g3/2f/ ed e4  | \
w:  Dil ler *  de nağ me a  |  dın SAZ  | 
z2 d2 e2 g2 f4 e2 c2  | 
w:  Dil ler de nağ me a  | 
d6 de f3/2e/ de d4  | (3def a4 (3gag (3fgf (3efe d2 z2  | 
w:  dın SAZ  |  SAZ  | 
(3def g4 (3fgf (3efe (3ded c2 z2  | \
w:   | 
(3Bcd e4 (3ded (3cdc (3BcB A4  | 
w:   | 
z2 d4 c2 B3/2A/ Bc d4  | z2 d4 _1/4e2 f8  | \
w:   |  Aşk gi bi  | 
g2 f2 e2 d2 e8  | d2 e4 d2 c4 B2 BA  | 
w:  sev da *  gi bi  |  huy suz ve tat lı ka  | 
A6 (3AB=B cB _BA A4  | e2 d4 c2 B4 A2 B2  | \
w:  dın SAZ  |  huy suz ve tat lı ka  | 
G6 dc B3/2A/ Bc d4  | 
w:  dın   SAZ  | 
z2 d4 _1/4e2 f8  | g2 f2 e2 d2 e8  | \
w:  Aşk gi bi  |  sev da *  gi bi  | 
d2 e4 d2 c4 B2 BA  | A6 (3AB=B cB _BA A4  | 
w:  huy suz ve tat lı ka  |  dın SAZ  | 
e2 d4 c2 B4 A2 B2  | G6 dc BA G^F G4  | \
w:  huy suz ve tat lı ka  |  dın   SAZ  | 
(3def a4 (3gag (3fgf (3efe d2 z2  | 
w:  SAZ  | 
(3def g4 (3fgf (3efe (3ded c2 z2  | \
w:   | 
(3Bcd e4 (3ded (3cdc (3BcB A4  | 
w:   | 
z2 b4 ba ag g^f g4  | z2 ^f4 g2 g8  | \
w:   |  En gü zel  | 
b3a ag ^fg a8  | a2 b4 z2 a4 g4  | 
w:  gün *  le *  ri *  ni  |  de mek ben siz  | 
g4 g2 g^f f8  | d2 e6 e2 d2 a2 g2  | \
w:  *  ya şa *  dın  |  de mek ben *  siz  | 
^f4 e2 ed d4 g4  | z2 ^f4 g2 g8  | 
w:  *  ya şa *  dın  |  En gü zel  | 
b3a ag ^fg a8  | a2 b4 z2 a4 g4  | g4 g2 g^f f8  | \
w:  gün *  le *  ri *  ni  |  de mek ben siz  |  *  ya şa *  dın  | 
d2 e6 e2 d2 a2 g2  | 
w:  de mek ben *  siz  | 
^f4 e2 ed d8  | (3def a4 (3gag (3fgf (3efe d2 z2  | \
w:  *  ya şa *  dın  |  SAZ  | 
(3def g4 (3fgf (3efe (3ded c2 z2  | 
w:   | 
(3Bcd e4 (3ded (3cdc (3BcB A4  | z2 d4 c2 B3/2A/ Bc d4  | 
w:   |   | 
z2 d4 _1/4e2 f8  | g2 f2 e2 d2 e8  | \
w:  Aşk gi bi  |  sev da *  gi bi  | 
d2 e4 d2 c4 B2 BA  | A6 (3AB=B cB _BA A4  | 
w:  huy suz ve tat lı ka  |  dın SAZ  | 
e2 d4 c2 B4 A2 B2  | G6 dc B3/2A/ Bc d4  | \
w:  huy suz ve tat lı ka  |  dın   SAZ  | 
z2 d4 _1/4e2 f8  | g2 f2 e2 d2 e8  | 
w:  Aşk gi bi  |  sev da *  gi bi  | 
d2 e4 d2 c4 B2 BA  | A6 (3AB=B cB _BA A4  | \
w:  huy suz ve tat lı ka  |  dın SAZ  | 
e2 d4 c2 B4 A2 B2  | 
w:  huy suz ve tat lı ka  | 
G6 |
w:  dın    | 


